X:171
T:A Sailor and a Farmer's Daughter
N:"Moderate"
B:O'Neill's 171
Z:Transcribed by henrik.norbeck@mailbox.swipnet.se
M:3/4
L:1/8
K:A
E AA|F2 GE AA|~Ac ee "~"fe/d/|cB AA G/A/B/G/|~EF GE G/A/G/A/|
F2 GE AA|~Ac ee "~"fe/d/|cB AB/c/ AA|A2- A||
.c .d.e|fd B.B .c.d|ec AA/G/ F.A|dc BA G/A/B/G/|""~EF AGF/E/ AA|
F2 GE AA|~Ac ea g/f/e/d/|cB .AB/c/ AA|A2- A||
